X:1
T:Reel St-Paul
C: Montagnards Laurentiens, fichier TablEdit : Bernard Loffet
L:1/8
Q:300
M:4/4
K:G
 z6 [dD,]c |: [B2G,,2] [dG,]B [G2E,,2] [g2E,2] | [eC,,]e [gC,]e [cD,,]e [dD,]c | [B2G,,2] [dG,]B [G2E,,2] [AA,]B | \
 [cA,,]A [AA,]G [A2D,,2] D,A | [B2G,,2] [dG,]B [G2E,,2] [g2E,2] | [eC,,]e [gC,]e [cD,,]e [dD,]c | \
 [B2G,,2] [dG,]B [G2E,,2] [AA,]B | [cD,,]A [DD,]A [G2G,,2] G,G :|: [cC,,]c [GC,]c [e2C,,2] [dC,]c | \
 [BG,,]d [GG,]B [d2E,,2] [cE,]B | [AA,,]G [AA,]B [c2D,,2] [AD,]A | [GG,,]A [BG,]c [d2G,,2] [G2G,2] | \
 [cC,,]c [GC,]c [e2C,,2] [dC,]c | [BG,,]d [GG,]B [d2E,,2] [cE,]B | [AA,,]G [AA,]B [c2D,,2] [AD,]A | \
|1 [GG,,]g [dG,]B [G2G,,2] G,G :|2 [GG,,]g [dG,]B [GG,,]e [dG,]c | \
K:C
W:Created with TablEdit http://www.tabledit.com/ by Bernard Loffet
